images/icons/users.svg

<svg xmlns="http://www.w3.org/2000/svg" baseProfile="full" width="855" height="570" fill="none"><path d="M420 60a120 120 0 00-120 120 120 120 0 00120 120 120 120 0 00120-120A120 120 0 00420 60m0 270a180 150 0 00-180 150m180-150a180 150 0 01180 150h0-360" stroke-width="15" stroke-linecap="round" stroke-linejoin="round" stroke="#0a0a0a"/></svg>

<svg xmlns="http://www.w3.org/2000/svg" baseProfile="full" version="1.1" style="fill: none;" width="855px" height="570px"><path style="stroke-width: 15px; stroke-linecap: round; stroke-linejoin: round; stroke: rgb(106, 106, 106); fill: none;" d=""/><path style="stroke-width: 15px; stroke-linecap: round; stroke-linejoin: round; stroke: rgb(74, 74, 74); fill: none;" d=""/><path style="stroke-width: 15px; stroke-linecap: round; stroke-linejoin: round; stroke: rgb(10, 10, 10); fill: none;" d="M420,60 A120,120 0 0,0 300,180 A120,120 0 0,0 420,300 A120,120 0 0,0 540,180 A120,120 0 0,0 420,60 M420,330 A180,150 0 0,0 240,480 M420,330 A180,150 0 0,1 600,480 L600,480 L240,480 "/></svg>
